files/resources/svgs/general/o-building-library.svg

<svg width="24" height="24" viewBox="0 0 24 24" fill="none" xmlns="http://www.w3.org/2000/svg">
<path d="M12 21V12.75M15.75 21V12.75M8.25 21V12.75M3 9L12 3L21 9M19.5 21V10.3325C17.0563 9.94906 14.5514 9.75 12 9.75C9.44861 9.75 6.94372 9.94906 4.5 10.3325V21M3 21H21M12 6.75H12.0075V6.7575H12V6.75Z" stroke="#0F172A" stroke-width="1.5" stroke-linecap="round" stroke-linejoin="round"/>
</svg>

<svg xmlns="http://www.w3.org/2000/svg" fill="none" viewBox="0 0 24 24" stroke-width="1.5" stroke="currentColor" aria-hidden="true">
  <path stroke-linecap="round" stroke-linejoin="round" d="M12 21v-8.25M15.75 21v-8.25M8.25 21v-8.25M3 9l9-6 9 6m-1.5 12V10.332A48.36 48.36 0 0012 9.75c-2.551 0-5.056.2-7.5.582V21M3 21h18M12 6.75h.008v.008H12V6.75z"/>
</svg>
